X: 1
T: Korobushka
C: trad. Russian arr. Shana Aisenberg
R:
S: Fiddle Hell Online 2021-02-24
Z: 2021 John Chambers <jc:trillian.mit.edu>
M: 2/4
L: 1/8
K: Am
[|\
"E"E3^G B2AG | "Am"A3c e2dc |\
"E"B2c2 d2e2 | "Am"c/B/A- A6 ||
|:\
"Dm"f3g a2gf | "Am"e3f e2dc |\
"E"B3c d2e2 |1 "Am"c/B/A- A6 :|2 "Am"c/B/A- A3 ||
|: B cd |\
"Am"e3^d e3^d | e2a2 e2dc |\
"E"B3c d2e2 |1 "Am"c/B/A- A3 :|2 "Am"c/B/A- A6 |]
